packages/core/src/svgs/tokens/branded/UQC.svg

<svg width="24" height="24" viewBox="0 0 24 24" fill="none" xmlns="http://www.w3.org/2000/svg">
<path d="M15.5487 14.5801V2.32193L18.7744 8.77352V21.4599C17.8067 21.6767 15.5487 21.6767 15.5487 21.6767V14.5801L13.6132 18.451H10.3873L8.45187 14.5801V21.6767C8.45187 21.6767 6.46736 21.7091 5.22607 21.4599V8.77352L8.45187 2.32193V14.5801H15.5487Z" fill="#E85C50"/>
<path d="M5.22581 21.4599C3.88258 21.1465 2 19.8188 2 18.4697V2.32193L5.22581 8.77352V21.4599ZM18.7741 21.4599C20.1174 21.1465 22 19.8188 22 18.4697V2.32193L18.7741 8.77352V21.4599Z" fill="#CF3339"/>
<path d="M5.22581 8.77352L2 2.32193H8.45161L5.22581 8.77352ZM18.7741 8.77352L22 2.32193H15.5484L18.7741 8.77352Z" fill="#E33936"/>
<path d="M15.5485 21.6766H8.45166L10.3871 18.4509H13.613L15.5485 21.6766Z" fill="#CF3339"/>
<path d="M10.3871 18.451L8.45166 21.6767V14.58L10.3871 18.451ZM15.5485 21.6767L13.613 18.451L15.5485 14.58V21.6767Z" fill="#E33937"/>
</svg>

<svg xmlns="http://www.w3.org/2000/svg" width="24" height="24" fill="none" viewBox="0 0 24 24">
    <path fill="#E85C50" d="M15.549 14.58V2.322l3.225 6.452V21.46c-.967.217-3.225.217-3.225.217zl-1.936 3.871h-3.226l-1.935-3.87v7.096s-1.985.032-3.226-.217V8.774l3.226-6.452V14.58z"/>
    <path fill="#CF3339" d="M5.226 21.46C3.883 21.146 2 19.819 2 18.47V2.322l3.226 6.452zm13.548 0C20.117 21.146 22 19.819 22 18.47V2.322l-3.226 6.452z"/>
    <path fill="#E33936" d="M5.226 8.774 2 2.322h6.452zm13.548 0L22 2.322h-6.452z"/>
    <path fill="#CF3339" d="M15.549 21.677H8.452l1.935-3.226h3.226z"/>
    <path fill="#E33937" d="m10.387 18.451-1.935 3.226V14.58zm5.162 3.226-1.936-3.226 1.936-3.871z"/>
</svg>
